cssgg/more-vertical.svg

<svg
  width="24"
  height="24"
  viewBox="0 0 24 24"
  fill="none"
  xmlns="http://www.w3.org/2000/svg"
>
  <path
    fill-rule="evenodd"
    clip-rule="evenodd"
    d="M12 5C12.5523 5 13 4.55228 13 4C13 3.44772 12.5523 3 12 3C11.4477 3 11 3.44772 11 4C11 4.55228 11.4477 5 12 5ZM12 13C12.5523 13 13 12.5523 13 12C13 11.4477 12.5523 11 12 11C11.4477 11 11 11.4477 11 12C11 12.5523 11.4477 13 12 13ZM12 21C12.5523 21 13 20.5523 13 20C13 19.4477 12.5523 19 12 19C11.4477 19 11 19.4477 11 20C11 20.5523 11.4477 21 12 21ZM15 4C15 5.65685 13.6569 7 12 7C10.3431 7 9 5.65685 9 4C9 2.34315 10.3431 1 12 1C13.6569 1 15 2.34315 15 4ZM15 12C15 13.6569 13.6569 15 12 15C10.3431 15 9 13.6569 9 12C9 10.3431 10.3431 9 12 9C13.6569 9 15 10.3431 15 12ZM12 23C13.6569 23 15 21.6569 15 20C15 18.3431 13.6569 17 12 17C10.3431 17 9 18.3431 9 20C9 21.6569 10.3431 23 12 23Z"
    fill="currentColor"
  />
</svg>

<svg viewBox="0 0 24 24" xmlns="http://www.w3.org/2000/svg"><path fill-rule="evenodd" d="M12 5c.55 0 1-.45 1-1 0-.56-.45-1-1-1 -.56 0-1 .44-1 1 0 .55.44 1 1 1Zm0 8c.55 0 1-.45 1-1 0-.56-.45-1-1-1 -.56 0-1 .44-1 1 0 .55.44 1 1 1Zm0 8c.55 0 1-.45 1-1 0-.56-.45-1-1-1 -.56 0-1 .44-1 1 0 .55.44 1 1 1Zm3-17c0 1.65-1.35 3-3 3 -1.66 0-3-1.35-3-3 0-1.66 1.34-3 3-3 1.65 0 3 1.34 3 3Zm0 8c0 1.65-1.35 3-3 3 -1.66 0-3-1.35-3-3 0-1.66 1.34-3 3-3 1.65 0 3 1.34 3 3Zm-3 11c1.65 0 3-1.35 3-3 0-1.66-1.35-3-3-3 -1.66 0-3 1.34-3 3 0 1.65 1.34 3 3 3Z"/></svg>
